src/images/logo-lisaa-invert.svg

<svg fill="none" height="77" viewBox="0 0 80 77" width="80" xmlns="http://www.w3.org/2000/svg"><path clip-rule="evenodd" d="m0 76.2063h63.0718l16.9282-37.6259v-38.5804h-80zm59.8022-4.7221h-54.89778v-66.81236h70.13838v32.90386zm-11.0747-7.6355h2.0039l-.9492-2.7127zm6.0646 2.5118v.1005h-3.0587l-.5274-1.3564h-3.0059l-.5273 1.3564h-1.8985v-.1005l3.2168-7.2339h2.8478zm-16.559-2.5118h2.0567l-1.002-2.7127zm6.1173 2.5118v.1005h-3.0587l-.5273-1.3564h-3.006l-.5273 1.3564h-1.8985v-.1005l3.2169-7.2339h2.8477zm-13.764-4.7724c1.2129.3517 3.0059.9043 3.0059 2.562 0 1.8085-1.9512 2.562-3.9024 2.562-2.0567 0-3.3224-.854-3.8497-1.4568l1.1074-.9042c.5274.5526 1.6876 1.1554 2.7423 1.1554.4219 0 1.3711-.0502 1.3711-.5526 0-.5472-.7776-.7417-1.6813-.9677-.1747-.0437-.3541-.0886-.5336-.1375-.0227-.0062-.0457-.0124-.0689-.0187-1.1113-.3017-2.8315-.7688-2.8315-2.3926 0-2.0094 2.2676-2.562 3.7969-2.562 1.5294 0 2.5841.4019 3.4806 1.1554l-1.1075.854c-.6328-.5525-1.7402-.854-2.3731-.854-.6328 0-1.3711.1005-1.3711.6029 0 .3786.4794.5004 1.3027.7095.269.0684.5746.146.9122.2449zm-10.5999-2.4615h2.795v7.3344h-2.795zm-2.3731 5.978v.1005l-.5801 1.2056h-5.3263v-7.3343h2.795v6.0282z" fill="#fff" fill-rule="evenodd"/></svg>

<svg width="80" height="77" viewBox="0 0 80 77" fill="none" xmlns="http://www.w3.org/2000/svg">
<path fill-rule="evenodd" clip-rule="evenodd" d="M0 76.2063H63.0718L80 38.5804V0H0V76.2063ZM59.8022 71.4842H4.90442V4.67184H75.0428V37.5757L59.8022 71.4842ZM48.7275 63.8487H50.7314L49.7822 61.136L48.7275 63.8487ZM54.7921 66.3605V66.461H51.7334L51.206 65.1046H48.2001L47.6728 66.461H45.7743V66.3605L48.9911 59.1266H51.8389L54.7921 66.3605ZM38.2331 63.8487H40.2898L39.2878 61.136L38.2331 63.8487ZM44.3504 66.3605V66.461H41.2917L40.7644 65.1046H37.7584L37.2311 66.461H35.3326V66.3605L38.5495 59.1266H41.3972L44.3504 66.3605ZM30.5864 61.5881C31.7993 61.9398 33.5923 62.4924 33.5923 64.1501C33.5923 65.9586 31.6411 66.7121 29.6899 66.7121C27.6332 66.7121 26.3675 65.8581 25.8402 65.2553L26.9476 64.3511C27.475 64.9037 28.6352 65.5065 29.6899 65.5065C30.1118 65.5065 31.061 65.4563 31.061 64.9539C31.061 64.4067 30.2834 64.2122 29.3797 63.9862C29.205 63.9425 29.0256 63.8976 28.8461 63.8487C28.8234 63.8425 28.8004 63.8363 28.7772 63.83C27.6659 63.5283 25.9457 63.0612 25.9457 61.4374C25.9457 59.428 28.2133 58.8754 29.7426 58.8754C31.272 58.8754 32.3267 59.2773 33.2232 60.0308L32.1157 60.8848C31.4829 60.3323 30.3755 60.0308 29.7426 60.0308C29.1098 60.0308 28.3715 60.1313 28.3715 60.6337C28.3715 61.0123 28.8509 61.1341 29.6742 61.3432C29.9432 61.4116 30.2488 61.4892 30.5864 61.5881ZM19.9865 59.1266H22.7815V66.461H19.9865V59.1266ZM17.6134 65.1046V65.2051L17.0333 66.4107H11.707V59.0764H14.502V65.1046H17.6134Z" fill="white"/>
</svg>
